static/img/kroki/675122e56d0d72214b2d12e5fe7aa738.svg

<?xml version="1.0" encoding="us-ascii" standalone="no"?><svg xmlns="http://www.w3.org/2000/svg" xmlns:xlink="http://www.w3.org/1999/xlink" contentStyleType="text/css" height="352px" preserveAspectRatio="none" style="width:459px;height:352px;" version="1.1" viewBox="0 0 459 352" width="459px" zoomAndPan="magnify"><defs/><g><!--class aws_backup_job--><g id="elem_aws_backup_job"><rect codeLine="23" fill="#3D176E" height="39.7891" id="aws_backup_job" rx="2.5" ry="2.5" style="stroke:#000D19;stroke-width:0.5;" width="177" x="125.5" y="106.79"/><ellipse cx="140.5" cy="126.6845" fill="#ADD1B2" rx="11" ry="11" style="stroke:#181818;stroke-width:1.0;"/><path d="M143.4688,132.3252 Q142.8906,132.622 142.25,132.7627 Q141.6094,132.9189 140.9063,132.9189 Q138.4063,132.9189 137.0781,131.2783 Q135.7656,129.622 135.7656,126.497 Q135.7656,123.372 137.0781,121.7158 Q138.4063,120.0595 140.9063,120.0595 Q141.6094,120.0595 142.25,120.2158 Q142.9063,120.372 143.4688,120.6689 L143.4688,123.3877 Q142.8438,122.8095 142.25,122.5439 Q141.6563,122.2627 141.0313,122.2627 Q139.6875,122.2627 139,123.3408 Q138.3125,124.4033 138.3125,126.497 Q138.3125,128.5908 139,129.6689 Q139.6875,130.7314 141.0313,130.7314 Q141.6563,130.7314 142.25,130.4658 Q142.8438,130.1845 143.4688,129.6064 L143.4688,132.3252 Z " fill="#000000"/><text fill="#D9B8FF" font-family="Helvetica" font-size="17" lengthAdjust="spacing" textLength="135" x="159.5" y="132.5698">aws_backup_job</text></g><!--class aws_backup_plan--><g id="elem_aws_backup_plan"><rect codeLine="26" fill="#3D176E" height="39.7891" id="aws_backup_plan" rx="2.5" ry="2.5" style="stroke:#000D19;stroke-width:0.5;" width="188" x="7" y="7"/><ellipse cx="22" cy="26.8945" fill="#ADD1B2" rx="11" ry="11" style="stroke:#181818;stroke-width:1.0;"/><path d="M24.9688,32.5352 Q24.3906,32.832 23.75,32.9727 Q23.1094,33.1289 22.4063,33.1289 Q19.9063,33.1289 18.5781,31.4883 Q17.2656,29.832 17.2656,26.707 Q17.2656,23.582 18.5781,21.9258 Q19.9063,20.2695 22.4063,20.2695 Q23.1094,20.2695 23.75,20.4258 Q24.4063,20.582 24.9688,20.8789 L24.9688,23.5977 Q24.3438,23.0195 23.75,22.7539 Q23.1563,22.4727 22.5313,22.4727 Q21.1875,22.4727 20.5,23.5508 Q19.8125,24.6133 19.8125,26.707 Q19.8125,28.8008 20.5,29.8789 Q21.1875,30.9414 22.5313,30.9414 Q23.1563,30.9414 23.75,30.6758 Q24.3438,30.3945 24.9688,29.8164 L24.9688,32.5352 Z " fill="#000000"/><text fill="#D9B8FF" font-family="Helvetica" font-size="17" lengthAdjust="spacing" textLength="146" x="41" y="32.7798">aws_backup_plan</text></g><!--class aws_backup_protected_resource--><g id="elem_aws_backup_protected_resource"><rect codeLine="29" fill="#3D176E" height="39.7891" id="aws_backup_protected_resource" rx="2.5" ry="2.5" style="stroke:#000D19;stroke-width:0.5;" width="311" x="79.5" y="306.37"/><ellipse cx="94.5" cy="326.2645" fill="#ADD1B2" rx="11" ry="11" style="stroke:#181818;stroke-width:1.0;"/><path d="M97.4688,331.9052 Q96.8906,332.202 96.25,332.3427 Q95.6094,332.4989 94.9063,332.4989 Q92.4063,332.4989 91.0781,330.8583 Q89.7656,329.202 89.7656,326.077 Q89.7656,322.952 91.0781,321.2958 Q92.4063,319.6395 94.9063,319.6395 Q95.6094,319.6395 96.25,319.7958 Q96.9063,319.952 97.4688,320.2489 L97.4688,322.9677 Q96.8438,322.3895 96.25,322.1239 Q95.6563,321.8427 95.0313,321.8427 Q93.6875,321.8427 93,322.9208 Q92.3125,323.9833 92.3125,326.077 Q92.3125,328.1708 93,329.2489 Q93.6875,330.3114 95.0313,330.3114 Q95.6563,330.3114 96.25,330.0458 Q96.8438,329.7645 97.4688,329.1864 L97.4688,331.9052 Z " fill="#000000"/><text fill="#D9B8FF" font-family="Helvetica" font-size="17" lengthAdjust="spacing" textLength="269" x="113.5" y="332.1498">aws_backup_protected_resource</text></g><!--class aws_backup_recovery_point--><g id="elem_aws_backup_recovery_point"><rect codeLine="32" fill="#3D176E" height="39.7891" id="aws_backup_recovery_point" rx="2.5" ry="2.5" style="stroke:#000D19;stroke-width:0.5;" width="276" x="97" y="206.58"/><ellipse cx="112" cy="226.4745" fill="#ADD1B2" rx="11" ry="11" style="stroke:#181818;stroke-width:1.0;"/><path d="M114.9688,232.1152 Q114.3906,232.412 113.75,232.5527 Q113.1094,232.7089 112.4063,232.7089 Q109.9063,232.7089 108.5781,231.0683 Q107.2656,229.412 107.2656,226.287 Q107.2656,223.162 108.5781,221.5058 Q109.9063,219.8495 112.4063,219.8495 Q113.1094,219.8495 113.75,220.0058 Q114.4063,220.162 114.9688,220.4589 L114.9688,223.1777 Q114.3438,222.5995 113.75,222.3339 Q113.1563,222.0527 112.5313,222.0527 Q111.1875,222.0527 110.5,223.1308 Q109.8125,224.1933 109.8125,226.287 Q109.8125,228.3808 110.5,229.4589 Q111.1875,230.5214 112.5313,230.5214 Q113.1563,230.5214 113.75,230.2558 Q114.3438,229.9745 114.9688,229.3964 L114.9688,232.1152 Z " fill="#000000"/><text fill="#D9B8FF" font-family="Helvetica" font-size="17" lengthAdjust="spacing" textLength="234" x="131" y="232.3598">aws_backup_recovery_point</text></g><!--class aws_backup_vault--><g id="elem_aws_backup_vault"><rect codeLine="35" fill="#3D176E" height="39.7891" id="aws_backup_vault" rx="2.5" ry="2.5" style="stroke:#000D19;stroke-width:0.5;" width="195" x="257.5" y="7"/><ellipse cx="272.5" cy="26.8945" fill="#ADD1B2" rx="11" ry="11" style="stroke:#181818;stroke-width:1.0;"/><path d="M275.4688,32.5352 Q274.8906,32.832 274.25,32.9727 Q273.6094,33.1289 272.9063,33.1289 Q270.4063,33.1289 269.0781,31.4883 Q267.7656,29.832 267.7656,26.707 Q267.7656,23.582 269.0781,21.9258 Q270.4063,20.2695 272.9063,20.2695 Q273.6094,20.2695 274.25,20.4258 Q274.9063,20.582 275.4688,20.8789 L275.4688,23.5977 Q274.8438,23.0195 274.25,22.7539 Q273.6563,22.4727 273.0313,22.4727 Q271.6875,22.4727 271,23.5508 Q270.3125,24.6133 270.3125,26.707 Q270.3125,28.8008 271,29.8789 Q271.6875,30.9414 273.0313,30.9414 Q273.6563,30.9414 274.25,30.6758 Q274.8438,30.3945 275.4688,29.8164 L275.4688,32.5352 Z " fill="#000000"/><text fill="#D9B8FF" font-family="Helvetica" font-size="17" lengthAdjust="spacing" textLength="153" x="291.5" y="32.7798">aws_backup_vault</text></g><!--link aws_backup_job to aws_backup_protected_resource--><g id="link_aws_backup_job_aws_backup_protected_resource"><path codeLine="38" d="M161.53,146.97 C113.59,167.77 53.85,203.72 80,246.37 C97.76,275.33 124.2543,291.8791 154.6443,303.7991 " fill="none" id="aws_backup_job-to-aws_backup_protected_resource" style="stroke:#1A83AF;stroke-width:2.0;"/><polygon fill="#1A83AF" points="160.23,305.99,153.3121,298.9799,155.5753,304.1643,150.3909,306.4274,160.23,305.99" style="stroke:#1A83AF;stroke-width:2.0;"/></g><!--link aws_backup_job to aws_backup_recovery_point--><g id="link_aws_backup_job_aws_backup_recovery_point"><path codeLine="39" d="M218.15,147.01 C221.83,164.15 225.9205,183.1937 229.6005,200.3337 " fill="none" id="aws_backup_job-to-aws_backup_recovery_point" style="stroke:#1A83AF;stroke-width:2.0;"/><polygon fill="#1A83AF" points="230.86,206.2,232.8816,196.5609,229.8104,201.3114,225.0599,198.2402,230.86,206.2" style="stroke:#1A83AF;stroke-width:2.0;"/></g><!--link aws_backup_plan to aws_backup_job--><g id="link_aws_backup_plan_aws_backup_job"><path codeLine="40" d="M123.33,47.22 C143.14,64.36 167.3825,85.3543 187.1825,102.4843 " fill="none" id="aws_backup_plan-to-aws_backup_job" style="stroke:#1A83AF;stroke-width:2.0;"/><polygon fill="#1A83AF" points="191.72,106.41,187.5308,97.4965,187.9387,103.1386,182.2966,103.5465,191.72,106.41" style="stroke:#1A83AF;stroke-width:2.0;"/></g><!--link aws_backup_plan to aws_backup_recovery_point--><g id="link_aws_backup_plan_aws_backup_recovery_point"><path codeLine="41" d="M97.04,47.13 C93,71.98 89.63,115.72 108,146.58 C124.4,174.13 149.1025,190.9022 175.9025,203.5322 " fill="none" id="aws_backup_plan-to-aws_backup_recovery_point" style="stroke:#1A83AF;stroke-width:2.0;"/><polygon fill="#1A83AF" points="181.33,206.09,174.894,198.635,176.8071,203.9585,171.4836,205.8716,181.33,206.09" style="stroke:#1A83AF;stroke-width:2.0;"/></g><!--link aws_backup_recovery_point to aws_backup_protected_resource--><g id="link_aws_backup_recovery_point_aws_backup_protected_resource"><path codeLine="42" d="M235,246.8 C235,263.94 235,282.85 235,299.99 " fill="none" id="aws_backup_recovery_point-to-aws_backup_protected_resource" style="stroke:#1A83AF;stroke-width:2.0;"/><polygon fill="#1A83AF" points="235,305.99,239,296.99,235,300.99,231,296.99,235,305.99" style="stroke:#1A83AF;stroke-width:2.0;"/></g><!--link aws_backup_vault to aws_backup_job--><g id="link_aws_backup_vault_aws_backup_job"><path codeLine="43" d="M327.14,47.22 C302.42,64.36 271.4303,85.8607 246.7303,102.9907 " fill="none" id="aws_backup_vault-to-aws_backup_job" style="stroke:#1A83AF;stroke-width:2.0;"/><polygon fill="#1A83AF" points="241.8,106.41,251.4751,104.5679,245.9086,103.5606,246.916,97.9941,241.8,106.41" style="stroke:#1A83AF;stroke-width:2.0;"/></g><!--link aws_backup_vault to aws_backup_protected_resource--><g id="link_aws_backup_vault_aws_backup_protected_resource"><path codeLine="44" d="M366.02,47.08 C387.51,87.26 429.55,181.86 390,246.37 C372.24,275.33 345.7457,291.8791 315.3557,303.7991 " fill="none" id="aws_backup_vault-to-aws_backup_protected_resource" style="stroke:#1A83AF;stroke-width:2.0;"/><polygon fill="#1A83AF" points="309.77,305.99,319.6091,306.4274,314.4247,304.1643,316.6879,298.9799,309.77,305.99" style="stroke:#1A83AF;stroke-width:2.0;"/></g><!--link aws_backup_vault to aws_backup_recovery_point--><g id="link_aws_backup_vault_aws_backup_recovery_point"><path codeLine="45" d="M352.52,47.27 C348.68,71.9 339.57,114.99 320,146.58 C305.15,170.54 285.8721,188.227 267.1521,202.657 " fill="none" id="aws_backup_vault-to-aws_backup_recovery_point" style="stroke:#1A83AF;stroke-width:2.0;"/><polygon fill="#1A83AF" points="262.4,206.32,271.9701,203.9935,266.3601,203.2675,267.0861,197.6574,262.4,206.32" style="stroke:#1A83AF;stroke-width:2.0;"/></g><!--SRC=[fP11Jy9048Nl_HMRS2QX4WKk9fN4w8KOyMPCCzsTXPLsjvdTGj3utos2PjdQGlGwxvjvxyrI2MHOb6xB2Ymo91lPbT8b41Gi8JARgSaDiPwK88UZKBmrsfq4Pb0WkyDyZKvn28cdfU8hZTQo2q-w0RvQaAcqs9zt1DhM4chdKTCSh4sS8vLL3hqmOfADfGp9y6XlAEBH5JOmGmBfW0m60n5FGkIaLMVl7sAktf35_jDcnc4ZPiFYY-fCkIEya8sYttfhnWSGGka5k_HcZ_jCf96EvlCb2BFPqH9owzjOXuJ6RKkSDbhXP2paw5VulWsE-Evr33OspMgaAjDNax7tAFfeAcKEkasYkZvtA592QohYs08IShD6sgQbKTgrG6keyeCM1Ei_z-9aF4nkN_hNtVxdRXu7YiAwRMlroRFPTelW6tzhj__McK6xuVyO1Iq_0G00]--></g></svg>

<svg xmlns="http://www.w3.org/2000/svg" width="459" height="352" viewBox="0 0 459 352"><rect width="177" height="39.789" x="125.5" y="106.79" fill="#3D176E" rx="2.5" ry="2.5" style="stroke:#000d19;stroke-width:.5"/><circle cx="140.5" cy="126.684" r="11" fill="#ADD1B2" style="stroke:#181818;stroke-width:1"/><path d="M143.469 132.325q-.578.297-1.219.438-.64.156-1.344.156-2.5 0-3.828-1.64-1.312-1.657-1.312-4.782t1.312-4.781q1.328-1.656 3.828-1.656.703 0 1.344.156.656.156 1.219.453v2.719q-.625-.579-1.219-.844-.594-.281-1.219-.281-1.344 0-2.031 1.078-.687 1.062-.687 3.156t.687 3.172q.688 1.062 2.031 1.062.625 0 1.219-.265.594-.281 1.219-.86z"/><text x="159.5" y="132.57" fill="#D9B8FF" font-family="Helvetica" font-size="17" textLength="135">aws_backup_job</text><rect width="188" height="39.789" x="7" y="7" fill="#3D176E" rx="2.5" ry="2.5" style="stroke:#000d19;stroke-width:.5"/><circle cx="22" cy="26.895" r="11" fill="#ADD1B2" style="stroke:#181818;stroke-width:1"/><path d="M24.969 32.535q-.578.297-1.219.438-.64.156-1.344.156-2.5 0-3.828-1.64-1.312-1.657-1.312-4.782t1.312-4.781q1.328-1.656 3.828-1.656.703 0 1.344.156.656.156 1.219.453v2.719q-.625-.578-1.219-.844-.594-.281-1.219-.281-1.343 0-2.031 1.078-.687 1.062-.687 3.156t.687 3.172q.688 1.062 2.031 1.062.625 0 1.219-.265.594-.281 1.219-.86z"/><text x="41" y="32.78" fill="#D9B8FF" font-family="Helvetica" font-size="17" textLength="146">aws_backup_plan</text><rect width="311" height="39.789" x="79.5" y="306.37" fill="#3D176E" rx="2.5" ry="2.5" style="stroke:#000d19;stroke-width:.5"/><circle cx="94.5" cy="326.264" r="11" fill="#ADD1B2" style="stroke:#181818;stroke-width:1"/><path d="M97.469 331.905q-.578.297-1.219.438-.64.156-1.344.156-2.5 0-3.828-1.64-1.312-1.657-1.312-4.782t1.312-4.781q1.328-1.656 3.828-1.656.703 0 1.344.156.656.156 1.219.453v2.719q-.625-.579-1.219-.844-.594-.281-1.219-.281-1.344 0-2.031 1.078-.687 1.062-.687 3.156t.687 3.172q.688 1.062 2.031 1.062.625 0 1.219-.265.594-.281 1.219-.86z"/><text x="113.5" y="332.15" fill="#D9B8FF" font-family="Helvetica" font-size="17" textLength="269">aws_backup_protected_resource</text><rect width="276" height="39.789" x="97" y="206.58" fill="#3D176E" rx="2.5" ry="2.5" style="stroke:#000d19;stroke-width:.5"/><circle cx="112" cy="226.475" r="11" fill="#ADD1B2" style="stroke:#181818;stroke-width:1"/><path d="M114.969 232.115q-.578.297-1.219.438-.64.156-1.344.156-2.5 0-3.828-1.64-1.312-1.657-1.312-4.782t1.312-4.781q1.328-1.656 3.828-1.656.703 0 1.344.156.656.156 1.219.453v2.719q-.625-.578-1.219-.844-.594-.281-1.219-.281-1.344 0-2.031 1.078-.687 1.062-.687 3.156t.687 3.172q.688 1.062 2.031 1.062.625 0 1.219-.265.594-.281 1.219-.86z"/><text x="131" y="232.36" fill="#D9B8FF" font-family="Helvetica" font-size="17" textLength="234">aws_backup_recovery_point</text><rect width="195" height="39.789" x="257.5" y="7" fill="#3D176E" rx="2.5" ry="2.5" style="stroke:#000d19;stroke-width:.5"/><circle cx="272.5" cy="26.895" r="11" fill="#ADD1B2" style="stroke:#181818;stroke-width:1"/><path d="M275.469 32.535q-.578.297-1.219.438-.64.156-1.344.156-2.5 0-3.828-1.64-1.312-1.657-1.312-4.782t1.312-4.781q1.328-1.656 3.828-1.656.703 0 1.344.156.656.156 1.219.453v2.719q-.625-.578-1.219-.844-.594-.281-1.219-.281-1.344 0-2.031 1.078-.687 1.062-.687 3.156t.687 3.172q.688 1.062 2.031 1.062.625 0 1.219-.265.594-.281 1.219-.86z"/><text x="291.5" y="32.78" fill="#D9B8FF" font-family="Helvetica" font-size="17" textLength="153">aws_backup_vault</text><path fill="none" d="M161.53 146.97c-47.94 20.8-107.68 56.75-81.53 99.4 17.76 28.96 44.254 45.51 74.644 57.43" style="stroke:#1a83af;stroke-width:2"/><path fill="#1A83AF" d="m160.23 305.99-6.918-7.01 2.263 5.184-5.184 2.263z" style="stroke:#1a83af;stroke-width:2"/><path fill="none" d="m218.15 147.01 11.45 53.324" style="stroke:#1a83af;stroke-width:2"/><path fill="#1A83AF" d="m230.86 206.2 2.022-9.64-3.072 4.751-4.75-3.07z" style="stroke:#1a83af;stroke-width:2"/><path fill="none" d="M123.33 47.22c19.81 17.14 44.052 38.134 63.853 55.264" style="stroke:#1a83af;stroke-width:2"/><path fill="#1A83AF" d="m191.72 106.41-4.19-8.913.409 5.642-5.642.407z" style="stroke:#1a83af;stroke-width:2"/><path fill="none" d="M97.04 47.13C93 71.98 89.63 115.72 108 146.58c16.4 27.55 41.102 44.322 67.903 56.952" style="stroke:#1a83af;stroke-width:2"/><path fill="#1A83AF" d="m181.33 206.09-6.436-7.455 1.913 5.323-5.323 1.914z" style="stroke:#1a83af;stroke-width:2"/><path fill="none" d="M235 246.8v53.19" style="stroke:#1a83af;stroke-width:2"/><path fill="#1A83AF" d="m235 305.99 4-9-4 4-4-4z" style="stroke:#1a83af;stroke-width:2"/><path fill="none" d="M327.14 47.22c-24.72 17.14-55.71 38.64-80.41 55.77" style="stroke:#1a83af;stroke-width:2"/><path fill="#1A83AF" d="m241.8 106.41 9.675-1.842-5.566-1.007 1.007-5.567z" style="stroke:#1a83af;stroke-width:2"/><path fill="none" d="M366.02 47.08c21.49 40.18 63.53 134.78 23.98 199.29-17.76 28.96-44.254 45.51-74.644 57.43" style="stroke:#1a83af;stroke-width:2"/><path fill="#1A83AF" d="m309.77 305.99 9.84.437-5.185-2.263 2.263-5.184z" style="stroke:#1a83af;stroke-width:2"/><path fill="none" d="M352.52 47.27c-3.84 24.63-12.95 67.72-32.52 99.31-14.85 23.96-34.128 41.647-52.848 56.077" style="stroke:#1a83af;stroke-width:2"/><path fill="#1A83AF" d="m262.4 206.32 9.57-2.326-5.61-.726.726-5.61z" style="stroke:#1a83af;stroke-width:2"/></svg>
